projects/cadence/icon/white/cadence-icon-white.svg

<svg xmlns="http://www.w3.org/2000/svg" role="img" viewBox="49.97 11.97 541.56 625.56"><path fill="#fcfcfc" fill-rule="evenodd" d="M334.648 30.093c-.708 6.773-3.596 14.15-6.947 17.742-7.734 8.291-33.889 13.434-43.208 8.496-3.838-2.034-11.156-9.259-16.52-16.309l-2.528-3.321-15.472 6.475c-12.674 5.304-15.446 6.824-15.322 8.4.084 1.058.708 5.524 1.388 9.924 1.781 11.531.562 15.306-7.434 23.026-8.19 7.907-22.592 15.478-29.415 15.464-5.371-.011-13.034-3.237-20.219-8.511-2.606-1.913-5.076-3.479-5.488-3.479-.625 0-5.943 4.7-23.827 21.057-1.784 1.631-1.755 1.826.889 6.014 10.84 17.172 9.908 26.296-4.45 43.547-10.062 12.09-17.821 14.466-34.332 10.515l-7.738-1.852-2.384 4.11c-1.311 2.26-4.961 8.956-8.112 14.88l-5.728 10.77 7.152 6.621c3.933 3.642 8.066 8.416 9.185 10.608 3.775 7.4 1.918 21.109-4.774 35.243-4.852 10.248-11.521 14.143-25.997 15.183l-8.134.585-.554 4.109c-1.758 13.036-2.91 29.764-2.097 30.456.505.429 3.618 1.595 6.918 2.589 15.393 4.638 20.5 13.48 20.5 35.491 0 10.798-.215 12.141-2.75 17.145-2.506 4.947-3.415 5.756-10.239 9.106-14.297 7.02-14.601 8.685-6.945 37.965l.953 3.641 4.24-.98c5.663-1.308 13.59-.431 18.432 2.039 11.101 5.664 21.19 25.592 20.063 39.631-.717 8.93-4.312 14.618-13.642 21.581l-3.387 2.529 5.157 8.229c2.837 4.526 7.15 11.337 9.584 15.135l4.426 6.904 7.161-3.009c17.217-7.233 25.657-4.188 40.894 14.753 3.221 4.003 6.406 8.945 7.078 10.98 1.795 5.439.588 12.322-3.805 21.697l-3.873 8.265 13.876 10.816 13.876 10.816 3.845-4.368c4.27-4.851 11.633-9.219 17.206-10.207 5.07-.899 11.957.832 21.359 5.367 9.38 4.524 16.739 10.645 19.644 16.338 2.711 5.314 3.347 13.819 1.537 20.531-1.035 3.836-1.123 5.442-.314 5.73.618.22 7.591 2.469 15.494 4.998 7.904 2.528 14.95 4.819 15.658 5.091.808.31 2.666-2.13 4.99-6.552 6.067-11.546 13.687-17.089 23.482-17.084 5.606.003 15.983 1.884 22.888 4.148 8.692 2.849 12.716 6.799 18.068 17.734l4.455 9.105h32.498l.627-3.75c3.173-18.971 8.57-24.909 26.559-29.221 9.799-2.349 18.61-2.597 23.26-.654 4.449 1.859 9.85 6.744 15.329 13.865 5.406 7.025 4.035 7.086 23.147-1.028 12.638-5.366 13.305-5.791 12.849-8.186-2.257-11.846-2.613-15.066-2.076-18.754.95-6.519 5.387-12.505 13.577-18.318 18.268-12.968 27.698-13.389 44.286-1.977 2.416 1.663 4.762 3.019 5.213 3.015.789-.007 10.626-8.46 20.603-17.703l4.784-4.432-21.658-21.178c-11.912-11.649-22.303-21.553-23.091-22.011-.984-.571-2.746.302-5.626 2.788-32.284 27.873-58.53 43.139-92.86 54.009-66.611 21.093-145.246 9.338-206.832-30.919-55.757-36.447-91.886-95.43-101.687-166.012-1.887-13.587-2.136-46.385-.453-59.534 5.795-45.257 22.683-85.808 49.927-119.882C221.855 121.004 282.338 90.734 357 86.428c33.139-1.911 74.841 6.59 107.121 21.837 18.314 8.651 41.356 23.32 55.538 35.356 2.838 2.409 5.59 4.379 6.116 4.379 1.564 0 39.486-50.768 38.778-51.914-.358-.579-6.521-5.55-13.697-11.046l-13.047-9.994-5.655 4.63c-13.06 10.693-20.732 11.655-35.699 4.473-12.095-5.803-17.821-10.225-20.631-15.93-1.999-4.059-2.336-6.312-2.406-16.108l-.083-11.389-13.417-4.329c-19.734-6.368-17.855-6.39-21.83.257-4.588 7.671-9.615 13.068-14.485 15.552-3.587 1.831-5.252 1.998-15.068 1.512-22.094-1.093-30.427-6.421-35.715-22.841L370.606 24h-35.321l-.637 6.093M344 112.141c-73.565 6.73-139.203 52.266-172.053 119.359-39.216 80.098-24.475 175.604 37.023 239.865 65.262 68.195 165.174 86.088 249.53 44.69 20.765-10.191 38.242-22.608 51.351-36.485l5.351-5.664-5.322-5.703C495.249 452.525 472.176 429 471.43 429c-.465 0-2.44 1.537-4.388 3.415-12.21 11.772-36.95 26.385-54.359 32.109-17.111 5.626-25.642 6.878-47.183 6.922-22.068.045-30.072-1.075-47.464-6.644-49.893-15.974-86.621-57.519-98.23-111.114-2.968-13.699-3.24-44.5-.512-57.958 3.854-19.012 12.122-38.987 22.86-55.23 6.921-10.469 24.03-27.488 35.357-35.171 17.39-11.794 39.076-21.071 59.33-25.38 14.03-2.984 36.516-3.663 50.924-1.538 25.115 3.706 46.444 12.631 66.666 27.897 3.783 2.855 7.596 5.735 8.474 6.398 1.366 1.032 4.575-2.083 22.345-21.693 11.413-12.594 20.75-23.306 20.75-23.806 0-.499-2.587-3.143-5.75-5.875-41.954-36.247-99.547-54.378-156.25-49.191"/></svg>

<svg xmlns="http://www.w3.org/2000/svg" width="650" height="650" viewBox="0 0 650 650" version="1.1"><path d="M 334.648 30.093 C 333.940 36.866, 331.052 44.243, 327.701 47.835 C 319.967 56.126, 293.812 61.269, 284.493 56.331 C 280.655 54.297, 273.337 47.072, 267.973 40.022 L 265.445 36.701 249.973 43.176 C 237.299 48.480, 234.527 50, 234.651 51.576 C 234.735 52.634, 235.359 57.100, 236.039 61.500 C 237.820 73.031, 236.601 76.806, 228.605 84.526 C 220.415 92.433, 206.013 100.004, 199.190 99.990 C 193.819 99.979, 186.156 96.753, 178.971 91.479 C 176.365 89.566, 173.895 88, 173.483 88 C 172.858 88, 167.540 92.700, 149.656 109.057 C 147.872 110.688, 147.901 110.883, 150.545 115.071 C 161.385 132.243, 160.453 141.367, 146.095 158.618 C 136.033 170.708, 128.274 173.084, 111.763 169.133 L 104.025 167.281 101.641 171.391 C 100.330 173.651, 96.680 180.347, 93.529 186.271 L 87.801 197.041 94.953 203.662 C 98.886 207.304, 103.019 212.078, 104.138 214.270 C 107.913 221.670, 106.056 235.379, 99.364 249.513 C 94.512 259.761, 87.843 263.656, 73.367 264.696 L 65.233 265.281 64.679 269.390 C 62.921 282.426, 61.769 299.154, 62.582 299.846 C 63.087 300.275, 66.200 301.441, 69.500 302.435 C 84.893 307.073, 90 315.915, 90 337.926 C 90 348.724, 89.785 350.067, 87.250 355.071 C 84.744 360.018, 83.835 360.827, 77.011 364.177 C 62.714 371.197, 62.410 372.862, 70.066 402.142 L 71.019 405.783 75.259 404.803 C 80.922 403.495, 88.849 404.372, 93.691 406.842 C 104.792 412.506, 114.881 432.434, 113.754 446.473 C 113.037 455.403, 109.442 461.091, 100.112 468.054 L 96.725 470.583 101.882 478.812 C 104.719 483.338, 109.032 490.149, 111.466 493.947 L 115.892 500.851 123.053 497.842 C 140.270 490.609, 148.710 493.654, 163.947 512.595 C 167.168 516.598, 170.353 521.540, 171.025 523.575 C 172.820 529.014, 171.613 535.897, 167.220 545.272 L 163.347 553.537 177.223 564.353 L 191.099 575.169 194.944 570.801 C 199.214 565.950, 206.577 561.582, 212.150 560.594 C 217.220 559.695, 224.107 561.426, 233.509 565.961 C 242.889 570.485, 250.248 576.606, 253.153 582.299 C 255.864 587.613, 256.500 596.118, 254.690 602.830 C 253.655 606.666, 253.567 608.272, 254.376 608.560 C 254.994 608.780, 261.967 611.029, 269.870 613.558 C 277.774 616.086, 284.820 618.377, 285.528 618.649 C 286.336 618.959, 288.194 616.519, 290.518 612.097 C 296.585 600.551, 304.205 595.008, 314 595.013 C 319.606 595.016, 329.983 596.897, 336.888 599.161 C 345.580 602.010, 349.604 605.960, 354.956 616.895 L 359.411 626 375.660 626 L 391.909 626 392.536 622.250 C 395.709 603.279, 401.106 597.341, 419.095 593.029 C 428.894 590.680, 437.705 590.432, 442.355 592.375 C 446.804 594.234, 452.205 599.119, 457.684 606.240 C 463.090 613.265, 461.719 613.326, 480.831 605.212 C 493.469 599.846, 494.136 599.421, 493.680 597.026 C 491.423 585.180, 491.067 581.960, 491.604 578.272 C 492.554 571.753, 496.991 565.767, 505.181 559.954 C 523.449 546.986, 532.879 546.565, 549.467 557.977 C 551.883 559.640, 554.229 560.996, 554.680 560.992 C 555.469 560.985, 565.306 552.532, 575.283 543.289 L 580.067 538.857 558.409 517.679 C 546.497 506.030, 536.106 496.126, 535.318 495.668 C 534.334 495.097, 532.572 495.970, 529.692 498.456 C 497.408 526.329, 471.162 541.595, 436.832 552.465 C 370.221 573.558, 291.586 561.803, 230 521.546 C 174.243 485.099, 138.114 426.116, 128.313 355.534 C 126.426 341.947, 126.177 309.149, 127.860 296 C 133.655 250.743, 150.543 210.192, 177.787 176.118 C 221.855 121.004, 282.338 90.734, 357 86.428 C 390.139 84.517, 431.841 93.018, 464.121 108.265 C 482.435 116.916, 505.477 131.585, 519.659 143.621 C 522.497 146.030, 525.249 148, 525.775 148 C 527.339 148, 565.261 97.232, 564.553 96.086 C 564.195 95.507, 558.032 90.536, 550.856 85.040 L 537.809 75.046 532.154 79.676 C 519.094 90.369, 511.422 91.331, 496.455 84.149 C 484.360 78.346, 478.634 73.924, 475.824 68.219 C 473.825 64.160, 473.488 61.907, 473.418 52.111 L 473.335 40.722 459.918 36.393 C 440.184 30.025, 442.063 30.003, 438.088 36.650 C 433.500 44.321, 428.473 49.718, 423.603 52.202 C 420.016 54.033, 418.351 54.200, 408.535 53.714 C 386.441 52.621, 378.108 47.293, 372.820 30.873 L 370.606 24 352.946 24 L 335.285 24 334.648 30.093 M 344 112.141 C 270.435 118.871, 204.797 164.407, 171.947 231.500 C 132.731 311.598, 147.472 407.104, 208.970 471.365 C 274.232 539.560, 374.144 557.453, 458.500 516.055 C 479.265 505.864, 496.742 493.447, 509.851 479.570 L 515.202 473.906 509.880 468.203 C 495.249 452.525, 472.176 429, 471.430 429 C 470.965 429, 468.990 430.537, 467.042 432.415 C 454.832 444.187, 430.092 458.800, 412.683 464.524 C 395.572 470.150, 387.041 471.402, 365.500 471.446 C 343.432 471.491, 335.428 470.371, 318.036 464.802 C 268.143 448.828, 231.415 407.283, 219.806 353.688 C 216.838 339.989, 216.566 309.188, 219.294 295.730 C 223.148 276.718, 231.416 256.743, 242.154 240.500 C 249.075 230.031, 266.184 213.012, 277.511 205.329 C 294.901 193.535, 316.587 184.258, 336.841 179.949 C 350.871 176.965, 373.357 176.286, 387.765 178.411 C 412.880 182.117, 434.209 191.042, 454.431 206.308 C 458.214 209.163, 462.027 212.043, 462.905 212.706 C 464.271 213.738, 467.480 210.623, 485.250 191.013 C 496.663 178.419, 506 167.707, 506 167.207 C 506 166.708, 503.413 164.064, 500.250 161.332 C 458.296 125.085, 400.703 106.954, 344 112.141" stroke="none" fill="#fcfcfc" fill-rule="evenodd"/></svg>
